X: 13753
T: Forget Me Not
R: reel
M: 4/4
K: Cmajor
|:c2 Bc AGED|CA, A,2 G,A,CD|EGcd ecdc|Ad d2 dfed|
c2 Bc AGED|CA, A,2 G,A,CD|EGce dccA|GEDF EC E/F/G:|
|:c2 gc acgc|fcec dcAc|Gc c2 Gcea|gece d2 e/f/g|
agea gede|c2 ce dcAc|EGce dccA|GEDF EC E/F/G:|

